public/assets/images/language.svg

<svg width="24" height="25" viewBox="0 0 24 25" fill="none" xmlns="http://www.w3.org/2000/svg">
<g id="language">
<path id="Vector" d="M11.99 2.2002C6.47 2.2002 2 6.6802 2 12.2002C2 17.7202 6.47 22.2002 11.99 22.2002C17.52 22.2002 22 17.7202 22 12.2002C22 6.6802 17.52 2.2002 11.99 2.2002ZM18.92 8.2002H15.97C15.65 6.9502 15.19 5.7502 14.59 4.6402C16.43 5.2702 17.96 6.5502 18.92 8.2002ZM12 4.2402C12.83 5.4402 13.48 6.7702 13.91 8.2002H10.09C10.52 6.7702 11.17 5.4402 12 4.2402ZM4.26 14.2002C4.1 13.5602 4 12.8902 4 12.2002C4 11.5102 4.1 10.8402 4.26 10.2002H7.64C7.56 10.8602 7.5 11.5202 7.5 12.2002C7.5 12.8802 7.56 13.5402 7.64 14.2002H4.26ZM5.08 16.2002H8.03C8.35 17.4502 8.81 18.6502 9.41 19.7602C7.57 19.1302 6.04 17.8602 5.08 16.2002ZM8.03 8.2002H5.08C6.04 6.5402 7.57 5.2702 9.41 4.6402C8.81 5.7502 8.35 6.9502 8.03 8.2002ZM12 20.1602C11.17 18.9602 10.52 17.6302 10.09 16.2002H13.91C13.48 17.6302 12.83 18.9602 12 20.1602ZM14.34 14.2002H9.66C9.57 13.5402 9.5 12.8802 9.5 12.2002C9.5 11.5202 9.57 10.8502 9.66 10.2002H14.34C14.43 10.8502 14.5 11.5202 14.5 12.2002C14.5 12.8802 14.43 13.5402 14.34 14.2002ZM14.59 19.7602C15.19 18.6502 15.65 17.4502 15.97 16.2002H18.92C17.96 17.8502 16.43 19.1302 14.59 19.7602ZM16.36 14.2002C16.44 13.5402 16.5 12.8802 16.5 12.2002C16.5 11.5202 16.44 10.8602 16.36 10.2002H19.74C19.9 10.8402 20 11.5102 20 12.2002C20 12.8902 19.9 13.5602 19.74 14.2002H16.36Z" fill="#A2A2FF"/>
</g>
</svg>

<svg width="24" height="25" fill="none" xmlns="http://www.w3.org/2000/svg"><path d="M11.99 2.2C6.47 2.2 2 6.68 2 12.2s4.47 10 9.99 10c5.53 0 10.01-4.48 10.01-10s-4.48-10-10.01-10zm6.93 6h-2.95a15.65 15.65 0 00-1.38-3.56 8.03 8.03 0 014.33 3.56zM12 4.24c.83 1.2 1.48 2.53 1.91 3.96h-3.82c.43-1.43 1.08-2.76 1.91-3.96zM4.26 14.2c-.16-.64-.26-1.31-.26-2s.1-1.36.26-2h3.38c-.08.66-.14 1.32-.14 2 0 .68.06 1.34.14 2H4.26zm.82 2h2.95c.32 1.25.78 2.45 1.38 3.56a7.987 7.987 0 01-4.33-3.56zm2.95-8H5.08a7.987 7.987 0 014.33-3.56A15.65 15.65 0 008.03 8.2zM12 20.16c-.83-1.2-1.48-2.53-1.91-3.96h3.82c-.43 1.43-1.08 2.76-1.91 3.96zm2.34-5.96H9.66c-.09-.66-.16-1.32-.16-2 0-.68.07-1.35.16-2h4.68c.09.65.16 1.32.16 2 0 .68-.07 1.34-.16 2zm.25 5.56c.6-1.11 1.06-2.31 1.38-3.56h2.95a8.03 8.03 0 01-4.33 3.56zm1.77-5.56c.08-.66.14-1.32.14-2 0-.68-.06-1.34-.14-2h3.38c.16.64.26 1.31.26 2s-.1 1.36-.26 2h-3.38z" fill="#A2A2FF"/></svg>
